!!!!SEGMENT: pl-sa--351-a-vii-111--003_elsner-jozef--missa-in-f-credo.krn
!!!cenid: 18xx:1267
!!!COM: Elsner, Józef
!!!COM-rismid: pe30000957
!!!CDT: 1769/06/01-1854/04/18
!!!CNT: Polish
!!!OPR: Missa in F
!!!OTL: Credo
!!!OMV: 003
!!!PDT: 1828
!!!AGN: Sacred; Mass
!!!SMS-siglum: PL-SA
!!!SMS-shelfmark: 351/A VII 111
!!!SMS-shelfwork: 001-003 M
!!!SMS-variant:
!!!SMS-altvar:
!!!NIFC-rismid: 1001070170
!!!URL-scan: http://bc.bdsandomierz.pl/dlibra/publication/1655/edition/1623/content
!!!ONB-nifc: UWAGA: części Mszy: 1. Kyrie, 2. Gloria, 3. Credo, 4. Sanctus, 5. Benedictus, 6. Agnus Dei
**kern	**text	**dynam	**kern	**text	**dynam	**kern	**text	**kern	**text	**dynam
*part4	*part4	*part4	*part3	*part3	*part3	*part2	*part2	*part1	*part1	*part1
*staff4	*staff4	*	*staff3	*staff3	*	*staff2	*staff2	*staff1	*staff1	*
*Iempty	*	*	*Itenor	*	*	*Ialto	*	*Ivox	*	*
*I"Baſso.	*	*	*I"Tenore.	*	*	*I"Alto	*	*I"Canto	*	*
*I'B	*	*	*I'T	*	*	*I'A	*	*I'S	*	*
*clefF4	*	*	*clefC4	*	*	*clefC3	*	*clefC1	*	*
*k[b-]	*	*	*k[b-]	*	*	*k[b-]	*	*k[b-]	*	*
*d:	*	*	*d:	*	*	*d:	*	*d:	*	*
*M2/2	*	*	*M2/2	*	*	*M2/2	*	*M2/2	*	*
*met(c|)	*	*	*met(c|)	*	*	*met(c|)	*	*met(c|)	*	*
=1	=1	=1	=1	=1	=1	=1	=1	=1	=1	=1
*2\right	*	*	*	*	*	*2\right	*	*	*	*
!	!	!	!LO:TX:a:t=P:problem:na karcie tytułowej nazwa głosu "Alto"	!	!	!LO:TX:a:t=P:problem:na karcie tytułowej nazwa głosu "Tenore"	!	!LO:TX:a:i:t=risoluto	!	!
!LO:TX:a:i:t=Allo Moderato.	!	!	!LO:TX:a:i:t=Allo Moderato	!	!	!LO:TX:a:i:t=Allo Moderato.	!	!LO:TX:a:i:t=Allo Moderato.	!	!
2D\	Cre-	.	(1d	Cre-	.	(2f\	Cre-	(1dd	Cre-	.
4F\	-do	.	.	.	.	4a\	-do	.	.	.
4E\	in	.	.	.	.	4g\)	in	.	.	.
=2	=2	=2	=2	=2	=2	=2	=2	=2	=2	=2
4D\	u-	.	2D/)	-do	.	4f\	u-	2d/)	-do	.
8F\L	.	.	.	.	.	(8a\L	.	.	.	.
8E\J	.	.	.	.	.	8g\J	.	.	.	.
4D\	.	.	4r	.	.	4f\)	.	4r	.	.
8E\L	-num	.	4d\	in	.	8g\L	-num	4dd\	in	.
8F\J	.	.	.	.	.	8a\J	.	.	.	.
=3	=3	=3	=3	=3	=3	=3	=3	=3	=3	=3
*	*	*	*2\right	*	*	*	*	*2\right	*	*
2G\	De-	.	2.e\	u-	.	2b-\	De-	(2.ee\	u-	.
4G\	-um	.	.	.	.	4b-\	-um	.	.	.
4r	.	.	8d\L	-num	.	4r	.	8dd\L	-num	.
.	.	.	8e\J	.	.	.	.	8ee\J)	.	.
=4	=4	=4	=4	=4	=4	=4	=4	=4	=4	=4
2F\	Pa-	.	1f	De-	.	2a\	Pa-	1ff	De-	.
4A\	-trem	.	.	.	.	4cc\	-trem	.	.	.
4G\	o-	.	.	.	.	4b-\	o-	.	.	.
!LO:PB:g=original	!	!	!	!	!	!	!	!	!	!
=5	=5	=5	=5	=5	=5	=5	=5	=5	=5	=5
4F\	-mni-	.	2F/	-um	.	4a\	-mni-	2f/	-um	.
8A\L	-po-	.	.	.	.	8cc\L	-po-	.	.	.
8G\J	.	.	.	.	.	8b-\J	.	.	.	.
4F\	-ten-	.	4r	.	.	4a\	-ten-	4r	.	.
8G\	-tem	.	4f\	fac-	.	8b-\	-tem	4ff\	fa-	.
8A\	fa-	.	.	.	.	8cc\	fa-	.	.	.
=6	=6	=6	=6	=6	=6	=6	=6	=6	=6	=6
2B-\	-cto-	.	2.g\	-to-	.	2dd\	-cto-	(2.gg\	-cto-	.
2BB-/	-rem	.	.	.	.	2dd\	-rem	.	.	.
.	.	.	8f\L	-rem	.	.	.	8ff\L	-rem	.
.	.	.	8g\J	.	.	.	.	8gg\J)	.	.
!	!	!	!LO:PB:g=original	!	!	!LO:LB:g=original	!	!	!	!
=7	=7	=7	=7	=7	=7	=7	=7	=7	=7	=7
1AA	Cae-	.	1a	Cae-	.	1cc#X	Cae-	1aa	Cae-	.
=8	=8	=8	=8	=8	=8	=8	=8	=8	=8	=8
2AA/	-li	.	2A\	-li	.	2cc\	-li	2a\	-li	.
4r	.	.	4r	.	.	4r	.	4r	.	.
4C#X/	et	.	4A\	et	.	4e\	et	4a\	et	.
!	!	!	!	!	!	!	!	!LO:LB:g=original	!	!
=9	=9	=9	=9	=9	=9	=9	=9	=9	=9	=9
1C	ter-	.	(2.B-^\	ter-	.	1e	ter-	2.b-^\	ter-	.
.	.	.	4A\)	.	.	.	.	4a\	.	.
=10	=10	=10	=10	=10	=10	=10	=10	=10	=10	=10
2C#X/	-rae	.	2A\	-rae	.	2e\	-rae	2a\	-rae	.
4r	.	.	4r	.	.	4r	.	4r	.	.
!LO:N:vis=8.	!	!	!	!	!	!	!	!	!	!
8AA/	vi-	.	8e\	vi-	.	8a\	vi-	8cc#X\	vi-	.
8AA/	-si	.	8e\	-si-	.	8a\	-si-	8cc#\	-ſi-	.
=11	=11	=11	=11	=11	=11	=11	=11	=11	=11	=11
4.AA/	-bi-	.	4.e\	-bi-	.	4.a\	-bi-	4.cc#X\	-bi-	.
8AA/	-li-	.	8e\	-li-	.	8a\	-li-	8cc#\	-li-	.
4AA/	-um	.	4e\	-um	.	4a\	-um	4cc#\	-um	.
8A\	et	.	8c#X\	et	.	8a\	et	8ee\	et	.
8A\	in-	.	8c#\	in-	.	8a\	in-	8ee\	in-	.
!LO:LB:g=original	!	!	!	!	!	!	!	!	!	!
=12	=12	=12	=12	=12	=12	=12	=12	=12	=12	=12
4.A\	-vi-	.	4.c#X\	-vi-	.	4.a\	-vi-	4.ee\	-vi-	.
8A\	-ſi-	.	8c#\	-si-	.	8a\	-si-	8ee\	-ſi-	.
4A\	-bi-	.	4c#\	-bi-	.	4a\	-bi-	4ee\	-bi-	.
8A\	-li-	.	8c#\	-li-	.	8a\	-li-	8ee\	-li-	.
8A\	-um	.	8c#\	-um	.	8a\	-um	8ee\	-um	.
!	!	!	!LO:LB:g=original	!	!	!	!	!	!	!
=13	=13	=13	=13	=13	=13	=13	=13	=13	=13	=13
4.A\	om-	.	4.c#X\	om-	.	4.a\	om-	4.ee\	om-	.
8A\	-ni-	.	8c#\	-ni-	.	8a\	-ni-	8ee\	-ni-	.
4A\	-um	.	4c#\	-um	.	4a\	-um	4ee\	-um	.
4r	.	.	4r	.	.	4r	.	4r	.	.
!	!	!	!	!	!	!LO:LB:g=original	!	!	!	!
=14	=14	=14	=14	=14	=14	=14	=14	=14	=14	=14
2D\	Cre-	.	(>1d	Cre-	.	2f\	Cre-	1dd	Cre-	.
4F\	-do	.	.	.	.	4a\	-do	.	.	.
4E\	in	.	.	.	.	4g\	in	.	.	.
=15	=15	=15	=15	=15	=15	=15	=15	=15	=15	=15
4D\	u-	.	2D/)	-do	.	4f\	u-	2d/	-do	.
8F\L	-num	.	.	.	.	8a\L	-num	.	.	.
8E\J	.	.	.	.	.	8g\J	.	.	.	.
4D\	.	.	4r	.	.	4f\	.	4r	.	.
8E\L	.	.	4d\	in	.	8g\L	.	4dd\	in	.
8F\J	.	.	.	.	.	8a\J	.	.	.	.
!	!	!	!	!	!	!	!	!LO:LB:g=original	!	!
=16	=16	=16	=16	=16	=16	=16	=16	=16	=16	=16
4.G\	Do-	.	2.e\	u-	.	4.b-\	Do-	2.ee\	u-	.
8G\	-mi-	.	.	.	.	8b-\	-mi-	.	.	.
4G\	-num	.	.	.	.	4b-\	-num	.	.	.
4r	.	.	8d\L	-num	.	4r	.	8dd\L	-num	.
.	.	.	8e\J	.	.	.	.	8ee\J	.	.
!LO:LB:g=original	!	!	!	!	!	!	!	!	!	!
=17	=17	=17	=17	=17	=17	=17	=17	=17	=17	=17
(2F\	Je-	.	2.f\	Do-	.	(2a\	Je-	2.ff\	Do-	.
4A\)	.	.	.	.	.	4cc\)	.	.	.	.
4G\	-sum	.	(4f\	-mi-	.	4b-\	-sum	(4ff\	-mi-	.
=18	=18	=18	=18	=18	=18	=18	=18	=18	=18	=18
4F\	Chri-	.	2F/)	-num	.	4a\	Chris-	2f/)	-num	.
8A\L	.	.	.	.	.	8cc\L	.	.	.	.
8G\J	.	.	.	.	.	8b-\J	.	.	.	.
4F\	-stum	.	4r	.	.	4a\	-tum	4r	.	.
(8G\L	fi-	.	8f\L	Je-	.	8b-\L	fi-	8ff\L	Je-	.
8A\J)	.	.	8e\J	.	.	8cc\J	.	8ee\J	.	.
=19	=19	=19	=19	=19	=19	=19	=19	=19	=19	=19
4.B-\	-li-	.	(2.d\	.	.	4.dd\	-li-	2.dd\	.	.
8BB-/	.	.	.	.	.	8d\	.	.	.	.
4BB-/	-um	.	.	.	.	4d\	-um	.	.	.
4r	.	.	8e\L)	.	.	4r	.	8ee\L	-sum	.
.	.	.	8f\J	-sum	.	.	.	8ff\J	.	.
!	!	!	!LO:LB:g=original	!	!	!LO:PB:g=original	!	!	!	!
=20	=20	=20	=20	=20	=20	=20	=20	=20	=20	=20
4BB-/	De-	.	1g	Chri-	.	4d\	De-	1gg	Chri-	.
8D/L	-i	.	.	.	.	8f\L	-i	.	.	.
8C/J	.	.	.	.	.	8e\J	.	.	.	.
4BB-/	u-	.	.	.	.	4d\	u-	.	.	.
4BBn/	-ni-	.	.	.	.	4f\	-ni-	.	.	.
=21	=21	=21	=21	=21	=21	=21	=21	=21	=21	=21
4.C/	-ge-	.	2G/	-stum	.	4.f\	-ge-	2g\	-stum	.
8C/	-ni-	.	.	.	.	8e\	-ni-	.	.	.
4C/	-tum	.	4r	.	.	4e\	-tum	4r	.	.
8C/	et	.	8G/	et	.	8e\	et	8cc\	et	.
8C/	ex	.	8G/	ex	.	8e\	ex	8cc\	ex	.
!LO:LB:g=original	!	!	!	!	!	!	!	!	!	!
=22	=22	=22	=22	=22	=22	=22	=22	=22	=22	=22
2D/	pat-	.	2F/	pa-	.	2f\	Pa-	4.cc^\	pa-	.
.	.	.	.	.	.	.	.	8bn\	.	.
4D/	-re	.	4F/	-tre	.	4f\	-tre	4b\	-tre	.
8BBn/	na-	.	8F/	na-	.	8f\	na-	8dd\	na-	.
8BB/	-tum	.	8F/	-tum	.	8f\	-tum	8dd\	-tum	.
!	!	!	!	!	!	!	!	!LO:LB:g=original	!	!
=23	=23	=23	=23	=23	=23	=23	=23	=23	=23	=23
4.C/	an-	.	4.G/	an-	.	4.e\	an-	(4.dd^\	an-	.
8C/	-te	.	8G/	-te	.	8e\	-te	8cc\)	-te	.
4C/	o-	.	4G/	o-	.	4e\	o-	4cc\	o-	.
8BBn/	-mni-	.	8G/	-mni-	.	8f\	-mni-	8dd\	-mni-	.
8BB-X/	-a	.	8G/	-a	.	8g\	-a	8ee\	-a	.
=24	=24	=24	=24	=24	=24	=24	=24	=24	=24	=24
4.AA/	ſae-	.	4.c\	ſae-	.	4.f\	ſae-	4.ff\	ſae-	.
8AA/	-cu-	.	8c\	-cu-	.	8f\	-cu-	8ff\	-cu-	.
4AA/	-la	.	4c\	-la	.	4f\	-la	4ff\	-la	.
[4AA/	De-	.	4r	.	.	[4cc\	De-	4r	.	.
!	!	!	!	!	!	!LO:LB:g=original	!	!	!	!
=25	=25	=25	=25	=25	=25	=25	=25	=25	=25	=25
4AA/]	.	.	2f\	De-	.	4cc\]	.	2ff\	De-	.
8GG/	-um	.	.	.	.	8b-\	-um	.	.	.
8FF/	de	.	.	.	.	8a\	de	.	.	.
4BB-/	De-	.	4f\	-um	.	4dd\	De-	4ff\	-um	.
4AA/	-o	.	4f\	de	.	4cc\	-o	4ff\	de	.
=26	=26	=26	=26	=26	=26	=26	=26	=26	=26	=26
2GG#X/	lu-	.	2f\	De-	.	2bn\	lu-	2ff\	De-	.
4AA/	-men	.	4F/	-o	.	4cc\	-men	4f/	-o	.
4GGn/	de	.	4r	.	.	4b-X\	de	4r	.	.
!LO:LB:g=original	!	!	!LO:LB:g=original	!	!	!	!	!	!	!
=27	=27	=27	=27	=27	=27	=27	=27	=27	=27	=27
4FF/	lu-	.	2f\	lu-	.	4a\	lu-	2ff\	lu-	.
8AA/L	-mi-	.	.	.	.	8cc\L	-mi-	.	.	.
8GG/J	.	.	.	.	.	8b-\J	.	.	.	.
4FF/	-ne	.	4f\	-men	.	4a\	-ne	4ff\	-men	.
4AA/	De-	.	4f\	de	.	4cc\	De-	4ff\	de	.
=28	=28	=28	=28	=28	=28	=28	=28	=28	=28	=28
(4BB-/	-um	.	4.f\	lu-	.	(4dd\	-um	4.ff\	lu-	.
4AA/)	.	.	.	.	.	4cc\)	.	.	.	.
.	.	.	8F/	-mi-	.	.	.	8f/	-mi-	.
4D/	Ve-	.	4F/	-ne	.	4b-\	Ve-	4f/	-ne	.
8C/	-rum	.	4r	.	.	8a\	-rum	4r	.	.
8BB-/	de	.	.	.	.	8dd\	de	.	.	.
!	!	!	!	!	!	!	!	!LO:LB:g=original	!	!
=29	=29	=29	=29	=29	=29	=29	=29	=29	=29	=29
2AA/	De-	.	4.f\	De-	.	2cc\	De-	4.ff\	De-	.
.	.	.	8f\	-um	.	.	.	8ff\	-um	.
2BB-/	-o	.	4f\	Ve-	.	2dd\	-o	4ff\	Ve-	.
.	.	.	8d\	-rum	.	.	.	8dd\	-rum	.
.	.	.	8B-\	de	.	.	.	8b-\	de	.
=30	=30	=30	=30	=30	=30	=30	=30	=30	=30	=30
1C	Ve-	.	4A\	De-	.	4cc\	Ve-	4a\	De-	.
.	.	.	8d\L	-o	.	(4a\	.	8dd\L	-o	.
.	.	.	8c\J	.	.	.	.	8cc\J	.	.
.	.	.	4.c\	Ve-	.	4b-\)	.	4cc\	Ve-	.
.	.	.	.	.	.	4g\	.	(8dd\L	.	.
.	.	.	8B-\	.	.	.	.	8ee\J)	.	.
!	!	!	!	!	!	!LO:LB:g=original	!	!	!	!
=31	=31	=31	=31	=31	=31	=31	=31	=31	=31	=31
4F\	-ro	.	4A\	-ro	.	4f\	-ro	4ff\	-ro	.
4D/	qui	.	4f\	qui	.	4b-\	qui	4ff\	qui	.
4C/	prop-	.	4f\	prop-	.	4a\	prop-	4ff\	prop-	.
8BB-/	-ter	.	8f\	-ter	.	8dd\	-ter	8ff\	-ter	.
8AA/	nos	.	8f\	nos	.	8cc\	nos	8ff\	nos	.
=32	=32	=32	=32	=32	=32	=32	=32	=32	=32	=32
4.GG#X/	ho-	.	4.f\	ho-	.	4.bn\	ho-	4.ff\	ho-	.
8GG#/	-mi-	.	8F/	-mi-	.	8b\	-mi-	8f/	-mi-	.
4AA/	-ne	.	4F/	-ne	.	4cc\	-ne	4f/	-ne	.
4GGn/	Et	.	4r	.	.	4b-X\	Et	4r	.	.
!LO:LB:g=original	!	!	!LO:LB:g=original	!	!	!	!	!	!	!
=33	=33	=33	=33	=33	=33	=33	=33	=33	=33	=33
4FF/	prop-	.	2f\	Et	.	4a\	prop-	2ff\	Et	.
8AA/L	-ter	.	.	.	.	8cc\L	-ter	.	.	.
8GG/J	.	.	.	.	.	8b-\J	.	.	.	.
4FF/	no-	.	4f\	prop-	.	4a\	no-	4ff\	prop-	.
8GG/	.	.	4f\	-ter	.	8b-\	.	4ff\	-ter	.
8AA/	-stram	.	.	.	.	8cc\	-stram	.	.	.
=34	=34	=34	=34	=34	=34	=34	=34	=34	=34	=34
(4BB-/	ſa-	.	2f\	no-	.	4dd\	ſa-	2ff\	no-	.
4AA/)	-lu-	.	.	.	.	(4cc\	-lu-	.	.	.
4D/	-tem	.	4F/	-stram	.	4b-\)	-tem	4f/	-stram	.
8C/L	de-	.	4f\	ſa-	.	8a\L	de-	4ff\	ſa-	.
8BB-/J	.	.	.	.	.	8dd\J	.	.	.	.
!	!	!	!	!	!	!	!	!LO:LB:g=original	!	!
=35	=35	=35	=35	=35	=35	=35	=35	=35	=35	=35
2AA/	-scen-	.	2f\	-lu-	.	2cc\	-scen-	2ff\	-lu-	.
2BB-/	-dit	.	4f\	-tem	.	2dd\	-dit	4ff\	-tem	.
.	.	.	8d\L	de-	.	.	.	8dd\L	de-	.
.	.	.	8B-\J	.	.	.	.	8b-\J	.	.
=36	=36	=36	=36	=36	=36	=36	=36	=36	=36	=36
*	*	*	*	*	*	*	*ij	*	*	*
2C/	.	.	4A\	-scen-	.	4cc\	de-	4a\	-scen-	.
.	.	.	8d\L	-dit	.	4a\	-scen-	8dd\L	.	.
.	.	.	8c\J	.	.	.	.	8cc\J	.	.
2C/	de	.	4.c\	dae	.	4b-\	-dit	4cc\	-dit	.
*	*	*	*	*	*	*	*Xij	*	*	*
.	.	.	.	.	.	4g\	dae	8dd\L	dae	.
.	.	.	8B-\	.	.	.	.	8ee\J	.	.
!	!	!	!	!	!	!LO:LB:g=original	!	!	!	!
=37	=37	=37	=37	=37	=37	=37	=37	=37	=37	=37
1F	cae-	.	4A\	cae-	.	4f\	cae-	1ff	cae-	.
.	.	.	4c\	.	.	4a\	.	.	.	.
.	.	.	4.d\	.	.	4.b-\	.	.	.	.
.	.	.	8c\	.	.	8a\	.	.	.	.
=38	=38	=38	=38	=38	=38	=38	=38	=38	=38	=38
2.FF/	-lis.	.	2.c\	lis	.	2.a\	lis	2.f/	lis	.
!LO:PB:g=original	!	!	!LO:LB:g=original	!	!	!	!	!	!	!
=39||	=39||	=39||	=39||	=39||	=39||	=39||	=39||	=39||	=39||	=39||
*k[b-e-]	*	*	*k[b-e-]	*	*	*k[e-b-]	*	*k[b-e-]	*	*
*M3/4	*	*	*M3/4	*	*	*M3/4	*	*M3/4	*	*
!LO:TX:a:i:t=Andantino.	!	!	!LO:TX:a:i:t=Andantino.	!	!	!LO:TX:a:i:t=Andantino	!	!LO:TX:a:i:t=Andantino.	!	!
!	!	!	!LO:TX:a:t=P:problem:omyłkowo bemol g- zamiast b-	!	!	!	!	!	!	!
4r	.	.	4r	.	.	4r	.	8.f\L	Et	.
.	.	.	.	.	.	.	.	16b-\Jk	.	.
=40	=40	=40	=40	=40	=40	=40	=40	=40	=40	=40
!	!	!LO:DY:a:rj	!	!	!	!LO:TX:a:i:t=dolce.	!	!	!	!
8r	.	p	8r	.	.	8r	.	2dd\	in-	.
8BB-/	Et	.	8d\	Et	.	8b-\	Et	.	.	.
8D/	in-	.	8f\	in-	.	8b-\	in-	.	.	.
8BB-/	-car-	.	8d\	-car-	.	8b-\	-car-	.	.	.
8F\	-na-	.	8e-\	-na-	.	8a\	-na-	8.dd\L	car-	.
8F\	-tus	.	8e-\	-tus	.	8a\	-tus	.	.	.
.	.	.	.	.	.	.	.	16cc\Jk	.	.
=41	=41	=41	=41	=41	=41	=41	=41	=41	=41	=41
2B- 2BB-/	est	.	2d\	est	.	2f\	est	8.cc\	-na-	.
.	.	.	.	.	.	.	.	16b-\	-tus	.
.	.	.	.	.	.	.	.	8b-\	est	.
.	.	.	.	.	.	.	.	8r	.	.
4r	.	.	4r	.	.	4r	.	8.b-\L	Et	.
.	.	.	.	.	.	.	.	16dd\Jk	.	.
!	!	!	!	!	!	!	!	!LO:PB:g=original	!	!
=42	=42	=42	=42	=42	=42	=42	=42	=42	=42	=42
.	.	.	.	.	.	.	.	8qff/	.	.
8r	.	.	8r	.	.	8r	.	2ee-\	in-	.
8AA/	Et	.	8c\	Et	.	8f\	Et	.	.	.
8AA/	in-	.	8c\	in-	.	8f\	in-	.	.	.
8AA/	-car-	.	8c\	-car-	.	8f\	-car-	.	.	.
8BB-/	-na-	.	8B-\	-na-	.	8f\	-na-	4dd\	-car-	.
8BB-/	-tus	.	8B-\	-tus	.	8f\	-tus	.	.	.
=43	=43	=43	=43	=43	=43	=43	=43	=43	=43	=43
2F\	est	.	2A\	est	.	2f\	est	8.cc\	-na-	.
.	.	.	.	.	.	.	.	16a\	-tus	.
.	.	.	.	.	.	.	.	4f/	est	.
4E-\	de	.	4c\	de	.	4a\	de	4r	.	.
!	!	!	!	!	!	!LO:LB:g=original	!	!	!	!
=44	=44	=44	=44	=44	=44	=44	=44	=44	=44	=44
!	!	!	!	!	!	!	!	!LO:TX:a:t=1.	!	!
4.D\	ſpi-	.	4.B-\	ſpi-	.	4.b-\	ſpi-	2.r	.	.
8D\	-ri-	.	8B-\	-ri-	.	8b-\	-ri-	.	.	.
4C/	-tu	.	4e-\	-tu	.	4a\	-tu	.	.	.
!LO:LB:g=original	!	!	!LO:LB:g=original	!	!	!	!	!	!	!
=45	=45	=45	=45	=45	=45	=45	=45	=45	=45	=45
4BB-/	ſan-	.	4d\	ſan-	.	(8.b-\L	ſan-	[2ff\	de	.
.	.	.	.	.	.	16f\Jk)	.	.	.	.
4AA/	-cto	.	4c\	-cto	.	4f\	-cto	.	.	.
8r	.	.	8r	.	.	8r	.	8ff\L]	.	.
8AA/	de	.	8c\	de	.	8f\	de	8ee-\J	.	.
=46	=46	=46	=46	=46	=46	=46	=46	=46	=46	=46
4BB-/	ſpi-	.	4B-\	ſpi-	.	4f\	ſpi-	4dd\	ſpi-	.
8C/	-ri-	.	8A\	-ri-	.	8f\	-ri-	8cc\	-ri-	.
8D/	-tu	.	8c\	-tu	.	8f\	-tu	8b-\	-tu	.
8C/L	ſan-	.	8A\L	ſan-	.	4f\	ſan-	8ee-\L	ſan-	.
8BB-/J	.	.	8B-\J	.	.	.	.	8dd\J	.	.
=47	=47	=47	=47	=47	=47	=47	=47	=47	=47	=47
2F\	-cto	.	2A\	-cto	.	2f\	-cto	2cc\	-cto	.
4r	.	.	4r	.	.	4r	.	8.f/L	Et	.
.	.	.	.	.	.	.	.	16b-/Jk	.	.
=48	=48	=48	=48	=48	=48	=48	=48	=48	=48	=48
8r	.	.	8r	.	.	8r	.	2dd\	in-	.
8BB-/	Et	.	8d\	Et	.	8b-\	Et	.	.	.
8D/	in-	.	8f\	in-	.	8b-\	in-	.	.	.
8BB-/	-car-	.	8d\	-car-	.	8b-\	-car-	.	.	.
8F\	-na-	.	8e-\	-na-	.	8a\	-na-	4cc\	-car-	.
8F\	-tus	.	8e-\	-tus	.	8a\	-tus	.	.	.
!	!	!	!	!	!	!	!	!LO:LB:g=original	!	!
=49	=49	=49	=49	=49	=49	=49	=49	=49	=49	=49
2B- 2BB-/	est	.	2d\	est	.	2f\	est	8.cc\	-na-	.
.	.	.	.	.	.	.	.	16b-\	-tus	.
.	.	.	.	.	.	.	.	8b-\	est	.
.	.	.	.	.	.	.	.	8r	.	.
4r	.	.	4r	.	.	4r	.	8.b-\	Ex	.
.	.	.	.	.	.	.	.	16dd\	Ma-	.
!LO:LB:g=original	!	!	!LO:LB:g=original	!	!	!LO:LB:g=original	!	!	!	!
=50	=50	=50	=50	=50	=50	=50	=50	=50	=50	=50
.	.	.	.	.	.	.	.	8qff/	.	.
8.AA/	Ex	.	8.c\	Ex	.	8.f\	Ex	2ee-\	-ri-	.
16AA/	Ma-	.	16c\	Ma-	.	16f\	Ma-	.	.	.
8AA/	-ri-	.	8c\	-ri-	.	8f\	-ri-	.	.	.
8AA/	-a	.	8c\	-a	.	8f\	-a	.	.	.
8BB-/	Vir-	.	8B-\	Vir-	.	8f\	Vir-	4dd\	-a	.
8BB-/	-gi-	.	8B-\	-gi-	.	8f\	-gi-	.	.	.
=51	=51	=51	=51	=51	=51	=51	=51	=51	=51	=51
2F\	-ne	.	2A\	-ne	.	2f\	-ne	8.cc\	Vir-	.
.	.	.	.	.	.	.	.	16a\	-gi-	.
.	.	.	.	.	.	.	.	4f/	-ne	.
4E-\	et	.	4c\	et	.	4a\	et	4r	.	.
=52	=52	=52	=52	=52	=52	=52	=52	=52	=52	=52
2D/	ho-	.	2B-\	ho-	.	8.b-\L	ho-	4r	.	.
.	.	.	.	.	.	16f\Jk	.	.	.	.
.	.	.	.	.	.	2f\	-mo	4r	.	.
4D/	-mo	.	4Bn\	-mo	.	.	.	4ff\	et	.
=53	=53	=53	=53	=53	=53	=53	=53	=53	=53	=53
4.C/	fac-	.	4.c\	fac-	.	4.f\	fac-	(4.ee-\	ho-	.
8D/	-tus	.	8Bn\	-tus	.	8g\	-tus	8dd\)	.	.
8E-/	est	.	8c\	est	.	8g\	est	(16dd\LL	-mo	.
.	.	.	.	.	.	.	.	16cc\	.	.
8r	.	.	8r	.	.	8r	.	16dd\	.	.
.	.	.	.	.	.	.	.	16ee-\JJ)	.	.
=54	=54	=54	=54	=54	=54	=54	=54	=54	=54	=54
4r	.	.	4r	.	.	4r	.	2b-\	fa-	.
4F\	fa-	.	4c\	fa-	.	4f\	fa-	.	.	.
4F\	-ctus	.	4d\	-ctus	.	4a\	-ctus	(8.dd\L	-ctus	.
.	.	.	.	.	.	.	.	16cc\Jk)	.	.
!	!	!	!	!	!	!	!	!LO:LB:g=original	!	!
=55	=55	=55	=55	=55	=55	=55	=55	=55	=55	=55
2BB-/	est	.	2d\	est	.	2b-\	est	2b-\	est	.
8.B-\	cru-	.	4r	.	.	4r	.	4r	.	.
16B-\	-ci-	.	.	.	.	.	.	.	.	.
!LO:LB:g=original	!	!	!LO:LB:g=original	!	!	!	!	!	!	!
=56	=56	=56	=56	=56	=56	=56	=56	=56	=56	=56
!	!	!	!	!	!	!LO:TX:a:t=2.	!	!	!	!
!	!	!	!	!	!	!LO:N:vis=0	!	!	!	!
2B-\	-fi-	.	4r	.	.	1.r	.	4r	.	.
.	.	.	4r	.	.	.	.	4r	.	.
4A-X\	-xus	.	8.Bn\	cru-	.	.	.	8.dd\	cru-	.
.	.	.	16B\	-ci-	.	.	.	16dd\	-ci-	.
=57	=57	=57	=57	=57	=57	=57	=57	=57	=57	=57
2G\	e-	.	2.c\	-fi-	.	.	.	2.ee-\	-fi-	.
4F#X\	-ti-	.	.	.	.	.	.	.	.	.
=58	=58	=58	=58	=58	=58	=58	=58	=58	=58	=58
2G\	-am	.	2Bn\	-xus	.	4r	.	2dd\	-xus	.
.	.	.	.	.	.	4r	.	.	.	.
4GG^>/	pro	.	4d\	pro	.	4bn\	pro	4ff^\	pro	.
!	!	!	!	!	!	!LO:PB:g=original	!	!	!	!
=59	=59	=59	=59	=59	=59	=59	=59	=59	=59	=59
4AA-X/	no-	.	4c\	no-	.	4cc\	no-	4een\	no-	.
8AA-/	-bis	.	8c\	-bis	.	8cc\	-bis	8ee\	-bis	.
8r	.	.	8r	.	.	8r	.	8r	.	.
8.A\	cru-	.	4r	.	.	4r	.	4r	.	.
16A\	-ci-	.	.	.	.	.	.	.	.	.
=60	=60	=60	=60	=60	=60	=60	=60	=60	=60	=60
!	!	!	!LO:TX:a:t=1.	!	!	!	!	!	!	!
2A-X\	-fi-	.	2.r	.	.	4r	.	4r	.	.
.	.	.	.	.	.	4r	.	4r	.	.
!	!	!	!	!	!	!LO:N:vis=4.	!	!	!	!
4G\	-xus	.	.	.	.	8.b-X\	cru-	8.ee-\	cru-	.
.	.	.	.	.	.	16b-\	-ci-	16ee-\	-ci-	.
=61	=61	=61	=61	=61	=61	=61	=61	=61	=61	=61
2F\	e-	.	4r	.	.	2a-X\	-fi-	(2ff\	-fi-	.
.	.	.	8.c\	Cru-	.	.	.	.	.	.
.	.	.	16c\	-ci-	.	.	.	.	.	.
4En\	-ti-	.	(4B-\	-fi-	.	4g\	.	4cc\)	.	.
=62	=62	=62	=62	=62	=62	=62	=62	=62	=62	=62
2F\	-am	.	2c\)	-xus	.	2f\	-xus	2a-X\	-xus	.
4FF^>/	pro	.	4c\	pro	.	4e-\	pro	4an^\	pro	.
!LO:LB:g=original	!	!	!LO:LB:g=original	!	!	!	!	!LO:LB:g=original	!	!
=63	=63	=63	=63	=63	=63	=63	=63	=63	=63	=63
!	!	!	!	!	!	!	!	!	!	!LO:HP:b
4GG/	no-	.	4B-\	no-	.	4d-X\	no-	4b-\	no-	>
8GG/	-bis	.	8B-\	-bis	.	8d-\	-bis	8b-\	-bis	.
8r	.	.	8r	.	.	8r	.	8r	.	]
4GG/	ſub-	.	4B-\	ſub	.	4d-\	ſub	4b-\	ſub	.
=64	=64	=64	=64	=64	=64	=64	=64	=64	=64	=64
4.GG-X/	pon-	.	4.B-\	pon-	.	4.d-X\	pon-	4.een^\	pon-	.
8G\	-ti-	.	8d-X\	-ti-	.	8b-\	-ti-	8ee\	-ti-	.
8G\	-o	.	8c\	-o	.	8b-\	-o	8ee\	-o	.
8G\	pi-	.	8B-\	pi-	.	8b-\	pi-	8ee\	pi-	.
=65	=65	=65	=65	=65	=65	=65	=65	=65	=65	=65
4F\	-la-	.	4cn\	-la-	.	4an\	-la-	4ff\	-la-	.
8F\	-to	.	8c\	-to	.	8a\	-to	8ff\	-to	.
8r	.	.	8r	.	.	8r	.	8r	.	.
8.F\	paſ-	.	8.c\	paſ-	.	8.a\	paſ-	8.ff\	paſ-	.
16F\	-sus	.	16c\	-sus	.	16a\	-sus	16ff\	-sus	.
!	!	!	!	!	!	!LO:LB:g=original	!	!	!	!
=66	=66	=66	=66	=66	=66	=66	=66	=66	=66	=66
!	!	!	!	!	!LO:DY:b:rj	!	!	!	!	!LO:DY:b:rj
4E-\	paſ-	.	4c\	paſ-	f	4a\	paſ-	4gg-X\	paſ-	f
8E-\	-sus	.	8c\	-sus	.	8a\	-sus	8gg-\	-sus	.
8r	.	.	8r	.	.	8r	.	8r	.	.
8.E-\	et	.	8.c\	et	.	8.g-X\	et	8.an\	et	.
16E-\	ſe-	.	16c\	ſe-	.	16f\	ſe-	(16a\	ſe-	.
=67	=67	=67	=67	=67	=67	=67	=67	=67	=67	=67
2D-X\	-pul-	.	2B-\	-pul-	.	2f\	-pul-	2b-\)	-pul-	.
4D-\	-tus	.	4F/	-tus	.	4f\	-tus	4bn\	-tus	.
=68	=68	=68	=68	=68	=68	=68	=68	=68	=68	=68
2C/	est	.	2G/	est	.	2en\	est	2cc\	est	.
8.En\	et	.	8.d-X\	et	.	8.g\	et	8.b-X\	et	>
16E\	ſe-	.	16c\	ſe-	.	16g\	ſe-	16b-\	ſe-	]]
!LO:LB:g=original	!	!	!LO:LB:g=original	!	!	!	!	!LO:LB:g=original	!	!
=69	=69	=69	=69	=69	=69	=69	=69	=69	=69	=69
4.F\	-pul-	.	2c\	-pul-	.	[2.f\	-pul-	2.a-X\	-pul-	.
(8E-X\	.	.	.	.	.	.	.	.	.	.
8.D-X\L	.	.	[4d-X\	.	.	.	.	.	.	.
16C\Jk)	.	.	.	.	.	.	.	.	.	.
=70	=70	=70	=70	=70	=70	=70	=70	=70	=70	=70
2BB-/	.	.	2d-\]	.	.	2f\]	.	2.g/	-tus	.
4C/	-tus	.	(8c\L	-tus	.	4en\	-tus	.	.	.
.	.	.	8B-\J	.	.	.	.	.	.	.
=71	=71	=71	=71	=71	=71	=71	=71	=71	=71	=71
2FF/	est	.	2A-X\)	est	.	2f\	est	2f/	est	.
4r	.	.	4r	.	.	4r	.	4r	.	.
=72||	=72||	=72||	=72||	=72||	=72||	=72||	=72||	=72||	=72||	=72||
*k[enb-]	*	*	*k[enb-]	*	*	*k[enb-]	*	*k[fnb-]	*	*
*M2/2	*	*	*M2/2	*	*	*M2/2	*	*M2/2	*	*
*met(c|)	*	*	*met(c|)	*	*	*met(c|)	*	*met(c|)	*	*
!LO:TX:a:i:t=Tempo. Primo.	!	!	!LO:TX:a:i:t=Tempo Primo.	!	!LO:DY:b:rj	!LO:TX:a:i:t=Tempo primo	!	!LO:TX:a:i:t=Tempo. Primo.	!	!LO:DY:b:rj
4r	.	.	4r	.	f	4r	.	4r	.	f
4C/	Et	.	4G/	Et	.	4e\	Et	4cc\	Et	.
4C/	re-	.	4G/	re-	.	4e\	re-	4cc\	re-	.
4C/	-su-	.	4G/	-su-	.	4e\	-su-	4cc\	-su-	.
!	!	!	!	!	!	!LO:LB:g=original	!	!	!	!
=73	=73	=73	=73	=73	=73	=73	=73	=73	=73	=73
2C/	-re-	.	2A\	-re-	.	2f\	-re-	2dd\	-re-	.
2BB-/	-xit	.	2c\	-xit	.	2g\	-xit	2ee\	-xit	.
=74	=74	=74	=74	=74	=74	=74	=74	=74	=74	=74
2AA/	ter-	.	2c\	ter-	.	2f\	ter-	2ff\	ter-	.
4D/	-ti-	.	4A\	-ti-	.	4f\	-ti-	4ff\	-ti-	.
4C/	-a	.	4A\	-a	.	4d\	-a	4ff\	-a	.
=75	=75	=75	=75	=75	=75	=75	=75	=75	=75	=75
2BB-/	di-	.	2G/	di-	.	2d\	di-	2ff\	di-	.
4BB-/	-e	.	4G/	-e	.	4d\	-e	4ff\	-e	.
4BB-/	ſe-	.	4d\	ſe-	.	4g\	ſe-	4ff\	ſe-	.
!LO:PB:g=original	!	!	!LO:LB:g=original	!	!	!	!	!LO:LB:g=original	!	!
=76	=76	=76	=76	=76	=76	=76	=76	=76	=76	=76
2C/	-cun-	.	2c\	-cun-	.	2g\	-cun-	2ee\	-cun-	.
4C/	-dum	.	4c\	-dum	.	4g\	-dum	4ee\	-dum	.
4C/	ſcrip-	.	4c\	ſcrip-	.	4g\	ſcrip-	4ee\	ſcrip-	.
=77	=77	=77	=77	=77	=77	=77	=77	=77	=77	=77
2C/	-tu-	.	2c\	-tu-	.	2g\	-tu-	2ee\	-tu-	.
4C/	-ras	.	4c\	-ras	.	4g\	-ras	4ee\	-ras	.
8.C/	et	.	8.c\	et	.	8.c/	et	8.cc\	et	.
16D/	as-	.	16d\	as-	.	16d\	as-	16dd\	a-	.
=78	=78	=78	=78	=78	=78	=78	=78	=78	=78	=78
2E\	-cen-	.	2e\	-cen-	.	2e\	-cen-	2ee\	-scen-	.
4C/	-dit	.	4c\	-dit	.	4c\	-dit	4cc\	-dit	.
4E\	in	.	4e\	in	.	4e\	in	4ee\	in	.
!	!	!	!	!	!	!LO:LB:g=original	!	!	!	!
=79	=79	=79	=79	=79	=79	=79	=79	=79	=79	=79
1G	Cae-	.	(1Bn	Cae-	.	1d	Cae-	(1gg	Cae-	.
=80	=80	=80	=80	=80	=80	=80	=80	=80	=80	=80
2G\	-lum	.	2B-\)	-lum	.	2d\	-lum	4g\)	-lum	.
.	.	.	.	.	.	.	.	(2g\	ſe-	.
2F\	ſe-	.	2d\	ſe-	.	2g\	ſe-	.	.	.
.	.	.	.	.	.	.	.	8a\L	-det	.
.	.	.	.	.	.	.	.	8b-\J)	.	.
=81	=81	=81	=81	=81	=81	=81	=81	=81	=81	=81
2E\	det	.	2c\	det	.	2g\	-det	4cc\	ad	.
.	.	.	.	.	.	.	.	4bn\	dex-	.
2F\	-ad	.	2A\	-ad	.	2f\	ad	4a\	-te-	.
.	.	.	.	.	.	.	.	4dd\	-ram	.
=82	=82	=82	=82	=82	=82	=82	=82	=82	=82	=82
2G\	dex-	.	2G/	dex-	.	2e\	dex-	1cc	Pa-	.
4E/	-te-	.	4G/	-te-	.	4e\	-te-	.	.	.
4C/	-ram	.	4G/	-ram	.	4e\	-ram	.	.	.
!	!	!	!LO:PB:g=original	!	!	!	!	!LO:PB:g=original	!	!
=83	=83	=83	=83	=83	=83	=83	=83	=83	=83	=83
1GG	Pa-	.	(2.G/	Pa-	.	1d	Pa-	4cc\	.	.
.	.	.	.	.	.	.	.	8bn\L	.	.
.	.	.	.	.	.	.	.	8a\J	.	.
.	.	.	.	.	.	.	.	2b\	.	.
.	.	.	4F/)	-tris	.	.	.	.	.	.
!LO:LB:g=original	!	!	!	!	!	!	!	!	!	!
=84	=84	=84	=84	=84	=84	=84	=84	=84	=84	=84
4C/	-tris	.	4E/	.	.	4c\	-tris	4cc\	-tris	.
4C/	et	.	4G/	et	.	4e\	et	4cc\	et	.
4C/	i-	.	4G/	i-	.	4e\	i-	4cc\	i-	.
4C/	-te-	.	4G/	-te-	.	4e\	-te-	4cc\	-te-	.
=85	=85	=85	=85	=85	=85	=85	=85	=85	=85	=85
2C/	-rum	.	2A\	-rum	.	2f\	-rum	2dd\	-rum	.
2BB-X/	ven-	.	2c\	Ven-	.	2g\	Ven-	2ee\	ven-	.
=86	=86	=86	=86	=86	=86	=86	=86	=86	=86	=86
4.AA/	-tu-	.	4.c\	-tu-	.	4.f\	-tu-	4.ff\	-tu-	.
8AA/	-rus	.	8c\	-rus	.	8f\	-rus	8ff\	-rus	.
4D\	est	.	4A\	est	.	4f\	est	4ff\	est	.
4C\	cum	.	4A\	cum	.	4d\	cum	4ff\	cum	.
!	!	!	!	!	!	!LO:LB:g=original	!	!	!	!
=87	=87	=87	=87	=87	=87	=87	=87	=87	=87	=87
4.BBn/	glo-	.	4.d\	glo-	.	4.g\	glo-	4.ff\	glo-	.
8BB/	-ri-	.	8d\	-ri-	.	8g\	-ri-	8ff\	-ri-	.
4BB/	-a	.	4d\	-a	.	4g\	-a	4ff\	-a	.
8.G\	ju-	.	8.G/	ju-	.	8.g\	ju-	8.g\	ju-	.
16G\	-di-	.	16G/	-di-	.	16g\	-di-	16g\	-di-	.
=88	=88	=88	=88	=88	=88	=88	=88	=88	=88	=88
2A-X\	-ca-	.	2A-X\	-ca-	.	2a-X\	-ca-	2a-X^\	-ca-	.
2G\	-re	.	2G/	-re	.	2g\	-re	2g\	-re	.
!	!	!	!LO:LB:g=original	!	!	!	!	!LO:LB:g=original	!	!
=89	=89	=89	=89	=89	=89	=89	=89	=89	=89	=89
!	!	!	!	!	!	!	!	!	!	!LO:DY:b:rj
4F\	vi-	.	4Bn\	vi-	.	4a-X\	vi-	4dd\	vi-	f
4F\	-vos	.	4B\	-vos	.	4a-\	-vos	4dd\	-vos	.
4r	.	.	4r	.	.	4r	.	4r	.	.
8.G\	ju-	.	8.G/	ju-	.	8.g\	ju-	8.g\	ju-	.
16G\	-di-	.	16G/	-di-	.	16g\	-di-	16g\	-di-	.
!LO:LB:g=original	!	!	!	!	!	!	!	!	!	!
=90	=90	=90	=90	=90	=90	=90	=90	=90	=90	=90
2A-X\	-ca-	.	2A-X\	-ca-	.	2a-X\	-ca-	2a-X^\	-ca-	.
2G\	-re	.	2G\	-re	.	2g\	-re	2g\	-re	.
=91	=91	=91	=91	=91	=91	=91	=91	=91	=91	=91
!	!	!	!	!	!	!	!	!	!	!LO:DY:a:rj
4F\	vi-	.	4c\	vi-	.	4an\	vi-	4ee-X\	vi-	f
4F\	-vos	.	4c\	-vos	.	4a\	-vos	4ee-\	-vos	.
4r	.	.	4r	.	.	4r	.	4r	.	.
!	!	!	!	!	!	!	!	!	!	!LO:DY:a
4F\	Et	.	4c\	Et	.	4a\	Et	4dd\	Et	p
=92	=92	=92	=92	=92	=92	=92	=92	=92	=92	=92
1G	mor-	.	1B-	mor-	.	2a\	mor-	[1dd	mor-	.
.	.	.	.	.	.	2g\	.	.	.	.
!	!	!	!	!	!	!LO:LB:g=original	!	!	!	!
=93	=93	=93	=93	=93	=93	=93	=93	=93	=93	=93
!	!	!	!	!	!	!LO:TX:a:t=P:problem:przed tym taktem dwa skreślone takty	!	!	!	!
1D	-tu-	.	1A	-tu-	.	2g\	-tu-	2dd\]	-tu-	.
.	.	.	.	.	.	2f#X\	.	2dd\	.	.
=94	=94	=94	=94	=94	=94	=94	=94	=94	=94	=94
2BB-X/	-os	.	2G/	-os	.	2g\	-os	2dd\	-os	.
!	!	!	!	!	!	!	!	!	!	!LO:DY:a:t=f.
4BB-/	cu-	.	4d\	cu-	.	4g\	cu-	4dd\	cu-	f
4BB-/	-jus	.	4d\	-jus	.	4g\	-jus	4dd\	-jus	.
=95	=95	=95	=95	=95	=95	=95	=95	=95	=95	=95
4AA/	reg-	.	4e\	reg-	.	4g\	reg-	4cc#X\	reg-	.
8AA/	-ni	.	8e\	-ni	.	8g\	-ni	8cc#\	-ni	.
8AA/	non	.	8e\	non	.	8g\	non	8cc#\	non	.
4BB-X/	e-	.	4e\	e-	.	4g\	e-	4dd\	e-	.
4BB-/	-rit	.	4e\	-rit	.	4g\	-rit	4dd\	-rit	.
!	!	!	!LO:LB:g=original	!	!	!	!	!LO:LB:g=original	!	!
=96	=96	=96	=96	=96	=96	=96	=96	=96	=96	=96
2AA/	fi-	.	2e\	fi-	.	2g\	fi-	2cc#X\	fi-	.
4AA/	-nis	.	4e\	-nis	.	4g\	-nis	4cc#\	-nis	.
4r	.	.	4r	.	.	4r	.	4r	.	.
!	!	!	!	!	!	!LO:PB:g=original	!	!	!	!
=97	=97	=97	=97	=97	=97	=97	=97	=97	=97	=97
2D\	Et	.	1d	Cre-	.	2f\	Et	1dd	Cre-	.
(4F\	in	.	.	.	.	(4a\	in	.	.	.
4E\)	.	.	.	.	.	4g\)	.	.	.	.
!LO:LB:g=original	!	!	!	!	!	!	!	!	!	!
=98	=98	=98	=98	=98	=98	=98	=98	=98	=98	=98
4D\	ſpi-	.	2D/	-do	.	4f\	ſpi-	2f/	-do	.
(8F\L	.	.	.	.	.	8a\L	.	.	.	.
8E\J)	.	.	.	.	.	8g\J	.	.	.	.
4D\	-ri-	.	4r	.	.	4f\	-ri-	4r	.	.
8E\L	-tum	.	4d\	in	.	8g\L	-tum	4dd\	in	.
8F\J	.	.	.	.	.	8a\J	.	.	.	.
=99	=99	=99	=99	=99	=99	=99	=99	=99	=99	=99
2G\	ſan-	.	2.e\	ſpi-	.	2b-\	ſan-	2.ee\	ſpi-	.
4G\	-ctum	.	.	.	.	4b-\	-ctum	.	.	.
4r	.	.	8d\	-ri-	.	4r	.	8dd\	-ri-	.
.	.	.	8e\	-tum	.	.	.	8ee\	-tum	.
=100	=100	=100	=100	=100	=100	=100	=100	=100	=100	=100
(2F\	Do-	.	1f	ſan-	.	2a\	Do-	1ff	ſan-	.
4A\)	.	.	.	.	.	4cc\	.	.	.	.
4G\	-mi-	.	.	.	.	4b-\	-mi-	.	.	.
=101	=101	=101	=101	=101	=101	=101	=101	=101	=101	=101
4F\	-num	.	2F/	-ctum	.	4a\	-num	2f/	-ctum	.
8A\	et	.	.	.	.	8cc\	et	.	.	.
8G\	vi-	.	.	.	.	8b-\	vi-	.	.	.
4F\	-vi-	.	4r	.	.	4a\	-vi-	4r	.	.
8G\L	-fi-	.	8f\	et	.	8b-\L	-fi-	8ff\	et	.
8A\J	.	.	8e\	vi-	.	8cc\J	.	8ee\	vi-	.
!	!	!	!	!	!	!LO:LB:g=original	!	!	!	!
=102	=102	=102	=102	=102	=102	=102	=102	=102	=102	=102
(4.B-\	-can-	.	2.d\	-vi-	.	(4.dd\	-can-	2.dd\	-fi-	.
8BB-/)	.	.	.	.	.	8d\)	.	.	.	.
4BB-/	-tem	.	.	.	.	4d\	-tem	.	.	.
4r	.	.	8e\L	-fi-	.	4r	.	8ee\L	-vi-	.
.	.	.	8f\J	.	.	.	.	8ff\J	.	.
!LO:LB:g=original	!	!	!LO:LB:g=original	!	!	!	!	!LO:LB:g=original	!	!
=103	=103	=103	=103	=103	=103	=103	=103	=103	=103	=103
4BB-/	qui	.	(1g	-can-	.	4d\	qui	(1gg	-can-	.
8D/L	cum	.	.	.	.	8f\L	cum	.	.	.
8C/J	.	.	.	.	.	(8e\J	.	.	.	.
(4BB-/	Pa-	.	.	.	.	4d\	.	.	.	.
4BBn/)	.	.	.	.	.	4f\)	Pa-	.	.	.
=104	=104	=104	=104	=104	=104	=104	=104	=104	=104	=104
2.C/	-tre	.	2G/)	-tem	.	4f\	.	2g\)	-tem	.
.	.	.	.	.	.	4e\	.	.	.	.
.	.	.	4r	.	.	4e\	-tre	4r	.	.
4C/	et	.	8G/	qui	.	4e\	et	8cc\	qui	.
!	!	!	!	!	!	!	!	!LO:TX:a:t=P:problem:akcent na kresce taktowej	!	!
.	.	.	8G/	cum	.	.	.	8cc^\	cum	.
=105	=105	=105	=105	=105	=105	=105	=105	=105	=105	=105
2.D/	fi-	.	2F/	Pa-	.	2.f\	fi-	(4.cc\	Pa-	.
.	.	.	.	.	.	.	.	8bn\)	.	.
.	.	.	4F/	-tre	.	.	.	4b\	-tre	.
4BBn/	-li	.	4G/	et	.	4f\	-li	4dd\	et	.
=106	=106	=106	=106	=106	=106	=106	=106	=106	=106	=106
2C/	-o	.	4.G/	fi-	.	2e\	-o	4.dd^\	fi-	.
.	.	.	8G/	-li-	.	.	.	8cc\	-li-	.
4C/	si-	.	4G/	-o	.	4e\	si-	4cc\	-o	.
8BBn/L	-mul	.	8G/	si-	.	(8f\L	-mul	8dd\	si-	.
8BB-X/J	.	.	8G/	-mul	.	8g\J)	.	8ee\	-mul	.
=107	=107	=107	=107	=107	=107	=107	=107	=107	=107	=107
2.AA/	a-	.	2.c\	a-	.	2.g\	a-	2.ff\	a-	.
4AA/	-do-	.	4f\	-do-	.	4cc\	-do-	4ff\	-do-	.
!	!	!	!	!	!	!LO:LB:g=original	!	!	!	!
=108	=108	=108	=108	=108	=108	=108	=108	=108	=108	=108
4AA/	-ra-	.	1f	-ra-	.	4cc\	-ra-	1ff	-ra-	.
8GG/	-tur	.	.	.	.	8b-\	-tur	.	.	.
8FF/	et	.	.	.	.	8a\	et	.	.	.
4BB-/	con-	.	.	.	.	4dd\	con-	.	.	.
4AA/	-glo-	.	.	.	.	4cc\	-glo-	.	.	.
!LO:LB:g=original	!	!	!	!	!	!	!	!LO:LB:g=original	!	!
=109	=109	=109	=109	=109	=109	=109	=109	=109	=109	=109
2GG#X/	-ri-	.	2F/	-tur	.	2bn\	-ri-	2f/	-tur	.
(4AA/	-fi-	.	4r	.	.	(4cc\	-fi-	4r	.	.
4GGn/)	.	.	4f\	et	.	4b-X\)	.	4ff\	et	.
!	!	!	!LO:LB:g=original	!	!	!	!	!	!	!
=110	=110	=110	=110	=110	=110	=110	=110	=110	=110	=110
4FF/	-ca-	.	4.f\	con-	.	4a\	-ca-	4.ff\	con-	.
8AA/L	-tur	.	.	.	.	8cc\L	-tur	.	.	.
8GG/J	.	.	8f\	-glo-	.	8b-\J	.	8ff\	-glo-	.
4FF/	qui	.	4f\	-ri-	.	4a\	qui	4ff\	-ri-	.
4AA/	lo-	.	4f\	-fi-	.	4cc\	lo-	4ff\	-fi-	.
=111	=111	=111	=111	=111	=111	=111	=111	=111	=111	=111
4BB-/	-cu-	.	(4.f\	-ca-	.	4dd\	-cu-	(4.ff\	-ca-	.
4AA/	-tus	.	.	.	.	4cc\	-tus	.	.	.
.	.	.	8F/)	.	.	.	.	8f/)	.	.
4D/	est	.	4F/	-tur	.	4b-\	est	4f/	-tur	.
8C/	per	.	4r	.	.	8a\	per	4r	.	.
8BB-/	pro-	.	.	.	.	8dd\	pro-	.	.	.
=112	=112	=112	=112	=112	=112	=112	=112	=112	=112	=112
2AA/	-fe-	.	4.f\	qui	.	2cc\	-fe-	4.ff\	qui	.
.	.	.	8f\	lo-	.	.	.	8ff\	lo-	.
2C/	.	.	4f\	-cu-	.	2dd\	.	4ff\	-cu-	.
.	.	.	8d\L	-tus	.	.	.	8dd\L	-tus	.
.	.	.	8B-\J	.	.	.	.	8b-\J	.	.
!	!	!	!	!	!	!LO:LB:g=original	!	!	!	!
=113	=113	=113	=113	=113	=113	=113	=113	=113	=113	=113
1C	.	.	4A\	est	.	4cc\	-tas	4a\	est	.
*	*	*	*	*	*	*	*ij	*	*	*
.	.	.	8d\	per	.	4a\	per	8dd\	per	.
.	.	.	8c\	pro-	.	.	.	8cc\	pro-	.
.	.	.	(4.c\	-fe-	.	4b-\	pro-	4dd\	-fe-	.
.	.	.	.	.	.	4g\	-fe-	(8dd\L	.	.
*	*	*	*	*	*	*	*Xij	*	*	*
.	.	.	8B-\)	.	.	.	.	8ee\J)	.	.
!	!	!	!	!	!	!	!	!LO:LB:g=original	!	!
=114	=114	=114	=114	=114	=114	=114	=114	=114	=114	=114
4F\	-tas	.	4A\	-tas	.	4f\	-tas	4ff\	-tas	.
4D\	Et	.	2f\	Et	.	4b-\	Et	2ff\	Et	.
4C\	in	.	.	.	.	4a\	in	.	.	.
8BB-/	u-	.	4f\	in	.	8dd\	u-	4ff\	in	.
8AA/	-nam	.	.	.	.	8cc\	-nam	.	.	.
!LO:PB:g=original	!	!	!LO:LB:g=original	!	!	!	!	!	!	!
=115	=115	=115	=115	=115	=115	=115	=115	=115	=115	=115
2GG#X/	ſan-	.	2f\	u-	.	2bn\	ſan-	2ff\	u-	.
4AA/	-ctam	.	4F/	-nam	.	4cc\	-ctam	4f/	-nam	.
4GGn/	ca-	.	4r	.	.	4b-X\	ca-	4r	.	.
=116	=116	=116	=116	=116	=116	=116	=116	=116	=116	=116
4FF/	-tho-	.	2f\	ſan-	.	4a\	-tho-	2ff\	ſan-	.
8AA/L	-li-	.	.	.	.	8cc\L	-li-	.	.	.
8GG/J	.	.	.	.	.	8b-\J	.	.	.	.
4FF/	-cam	.	4f\	-ctam	.	4a\	-cam	4ff\	-ctam	.
8GG/L	et	.	4f\	ca-	.	8b-\L	et	4ff\	ca-	.
8AA/J	.	.	.	.	.	8cc\J	.	.	.	.
=117	=117	=117	=117	=117	=117	=117	=117	=117	=117	=117
4BB-/	a-	.	4.f\	-tho-	.	4dd\	a-	4.ff\	-tho-	.
4AA/	-po-	.	.	.	.	4cc\	-po-	.	.	.
.	.	.	8F/	-li-	.	.	.	8f/	-li-	.
4D/	-sto-	.	4F/	-cam	.	4b-\	-sto-	4.f/	-cam	.
8C/L	-li-	.	4f\	et	.	8a\L	-li-	.	.	.
8BB-/J	.	.	.	.	.	8dd\J	.	8ff\	et	.
=118	=118	=118	=118	=118	=118	=118	=118	=118	=118	=118
2AA/	-cam	.	2.f\	a-	.	2cc\	-cam	2.ff\	a-	.
2BB-/	Ec-	.	.	.	.	2dd\	Ec-	.	.	.
!	!	!	!LO:N:vis=4	!	!	!	!	!	!	!
.	.	.	8d\	-po-	.	.	.	8dd\L	-po-	.
!	!	!	!LO:N:vis=4	!	!	!	!	!	!	!
.	.	.	8B-\	.	.	.	.	8b-\J	.	.
!	!	!	!	!	!	!LO:LB:g=original	!	!LO:PB:g=original	!	!
=119	=119	=119	=119	=119	=119	=119	=119	=119	=119	=119
1C	-cle-	.	4A\	-sto-	.	4cc\	-cle-	4a\	-sto-	.
.	.	.	8d\L	-li-	.	4a\	.	8dd\L	-li-	.
.	.	.	8c\J	.	.	.	.	8cc\J	.	.
.	.	.	4.c\	-cam	.	4b-\	.	4cc\	-cam	.
.	.	.	.	.	.	4g\	-si-	8dd\L	Ec-	.
.	.	.	8B-\	Ec-	.	.	.	8ee\J	.	.
=120	=120	=120	=120	=120	=120	=120	=120	=120	=120	=120
4.F\	.	.	4.A\	-cle-	.	4.cc\	-am	4.ff\	-cle-	.
8F\	-si-	.	8A\	-si-	.	8cc\	Con-	8ff\	-si-	.
4F\	-am	.	4A\	-am	.	4cc\	-fi-	4ff\	-am	.
4D\	con-	.	4A\	con-	.	4dd\	-te-	4ff\	Con-	.
!LO:LB:g=original	!	!	!LO:PB:g=original	!	!	!	!	!	!	!
=121	=121	=121	=121	=121	=121	=121	=121	=121	=121	=121
4D\	fi-	.	4.A\	-fi-	.	4dd\	-or	4ff\	-fi-	.
8D\	-te-	.	.	.	.	8a\	u-	8ff\	-te-	.
8D\	-or	.	8d\	-te-	.	8a\	-num	8ff\	-or	.
4D\	u-	.	4d\	-or	.	4a\	u-	4ff\	u-	.
8D\	-num	.	8d\	u-	.	8a\	-num	8ff\	-num	.
8D\	Ba-	.	8d\	-num	.	8a\	Bap-	8ff\	Ba-	.
=122	=122	=122	=122	=122	=122	=122	=122	=122	=122	=122
4C#X/	-ptis-	.	4e\	Bap-	.	4a\	-tis-	4gg\	-ptis-	.
4C#/	-mum	.	4e\	-tis-	.	4a\	-mum	4gg\	-mum	.
4D\	in	.	4d\	-mum	.	4a\	in	4ff\	in	.
4D\	.	.	4d\	in	.	4a\	re-	4ff\	re-	.
=123	=123	=123	=123	=123	=123	=123	=123	=123	=123	=123
!	!	!	!	!	!	!LO:N:vis=2	!	!	!	!
[2G\	re-	.	[2B-X\	re-	.	2.b-X\	-miſ-	(2ee\	-miſ-	.
4G\]	-miſ-	.	4B-\]	-miſ-	.	.	.	4ee\	.	.
4G#X\	-si-	.	4Bn\	-si-	.	4f\	-si-	4dd\)	-si-	.
!	!	!	!	!	!	!	!	!LO:LB:g=original	!	!
=124	=124	=124	=124	=124	=124	=124	=124	=124	=124	=124
4A\	-o-	.	4A\	-o-	.	4f\	-o-	(4dd\	-o-	.
4A\	-nem	.	4A\	-nem	.	4e\	-nem	4cc#X\)	-nem	.
4A\	pec-	.	4A\	pec-	.	4e\	pec-	4cc#\	pec-	.
4G\	-ca-	.	4A\	-ca-	.	4e\	-ca-	4cc#\	-ca-	.
!	!	!	!	!	!	!LO:LB:g=original	!	!	!	!
=125	=125	=125	=125	=125	=125	=125	=125	=125	=125	=125
2F\	-to-	.	[1A	-to-	.	(1f	-to-	1dd	-to-	.
2D\	.	.	.	.	.	.	.	.	.	.
!LO:LB:g=original	!	!	!	!	!	!	!	!	!	!
=126	=126	=126	=126	=126	=126	=126	=126	=126	=126	=126
4A\	-rum	.	4A\]	.	.	4e\)	-rum	4cc#X\	-rum	.
4A\	Et	.	4A\	-rum	.	4a\	Et	4a\	Et	.
(4G#X\	ex-	.	(4G#X\	Et	.	(4g#X\	ex-	(4g#X\	ex-	.
4A\)	.	.	4A\)	ex-	.	4a\)	.	4a\)	.	.
!	!	!	!LO:LB:g=original	!	!	!	!	!	!	!
=127	=127	=127	=127	=127	=127	=127	=127	=127	=127	=127
2B-\	-pec-	.	2B-\	-pec-	.	2b-\	-pec-	2b-\	-pec-	.
2A\	-to	.	2A\	-to	.	2a\	-to	2a\	-to	.
=128	=128	=128	=128	=128	=128	=128	=128	=128	=128	=128
4F\	re-	.	4A\	re-	.	4a\	re-	4dd\	re-	.
4E\	-su-	.	4A\	-su-	.	4a\	-su-	4cc#X\	-su-	.
4D\	-re-	.	4A\	-re-	.	4a\	-re-	4ff\	-re-	.
4C#X/	-cti-	.	4A\	-cti-	.	4a\	-cti-	4ee\	-cti-	.
=129	=129	=129	=129	=129	=129	=129	=129	=129	=129	=129
4D/	-o-	.	4A\	-o-	.	4f\	-o-	4ee\	-o-	.
4Cn/	-nem	.	4A\	-nem	.	4f#X\	-nem	4dd\	-nem	.
4BB-/	mor-	.	4G\	mor-	.	4g\	mor-	4dd\	mor-	.
4BB-/	-tu-	.	4d\	-tu-	.	4g#X\	-tu-	4dd\	-tu-	.
!	!	!	!	!	!	!	!	!LO:LB:g=original	!	!
=130	=130	=130	=130	=130	=130	=130	=130	=130	=130	=130
1AA	-o-	.	1e	-o-	.	1a	-o-	2dd\	-o-	.
.	.	.	.	.	.	.	.	2cc#X\	.	.
=131	=131	=131	=131	=131	=131	=131	=131	=131	=131	=131
4FF;/	-rum	.	4d;\	-rum	.	4a;\	-rum	4cc#X;\	-rum	.
!	!	!	!	!	!	!	!	!LO:TX:a:i:t=un poco piu. di moto.	!	!
4r	.	.	4r	.	.	4a\	Et	4r	.	.
2r	.	.	2r	.	.	4g#X\	vi-	2r	.	.
.	.	.	.	.	.	4a\	.	.	.	.
!LO:LB:g=original	!	!	!	!	!	!LO:PB:g=original	!	!	!	!
=132	=132	=132	=132	=132	=132	=132	=132	=132	=132	=132
!LO:TX:a:t=3.	!	!	!LO:TX:a:t=5.	!	!	!	!	!	!	!
0r	.	.	00r	.	.	4f\	-tam	1r	.	.
.	.	.	.	.	.	8e\L	ven-	.	.	.
.	.	.	.	.	.	8d\J	.	.	.	.
.	.	.	.	.	.	4e\	-tu-	.	.	.
.	.	.	.	.	.	4f#X\	-ri	.	.	.
=133	=133	=133	=133	=133	=133	=133	=133	=133	=133	=133
.	.	.	.	.	.	4.g\	ſae-	4r	.	.
.	.	.	.	.	.	.	.	4dd\	Et	.
.	.	.	.	.	.	8fn\	-cu-	.	.	.
.	.	.	.	.	.	4e\	-li	4cc#X\	vi-	.
.	.	.	.	.	.	8d\L	A-	4dd\	.	.
.	.	.	.	.	.	8f\J	.	.	.	.
=134	=134	=134	=134	=134	=134	=134	=134	=134	=134	=134
1r	.	.	.	.	.	2a\	.	4ccn\	-tam	.
.	.	.	.	.	.	.	.	8bn\L	ven-	.
.	.	.	.	.	.	.	.	8a\J	.	.
.	.	.	.	.	.	2g\	.	4b\	-tu-	.
.	.	.	.	.	.	.	.	4cc#X\	-ri	.
=135	=135	=135	=135	=135	=135	=135	=135	=135	=135	=135
4r	.	.	.	.	.	4f\	.	4.dd\	ſae-	.
4A\	Et	.	.	.	.	4.e\	.	.	.	.
.	.	.	.	.	.	.	.	8ccn\	-cu-	.
(4G#X\	vi-	.	.	.	.	.	.	4bn\	-li	.
.	.	.	.	.	.	8d\	.	.	.	.
4A\)	.	.	.	.	.	8c\L	.	8a\L	A-	.
.	.	.	.	.	.	8e\J	.	8cc\J	.	.
!	!	!	!	!	!	!	!	!LO:LB:g=original	!	!
=136	=136	=136	=136	=136	=136	=136	=136	=136	=136	=136
!	!	!	!	!	!	!LO:TX:t=P:problem:mixed beam	!	!	!	!
4F\	tam	.	1r	.	.	8A/L	.	2dd\	.	.
.	.	.	.	.	.	8a\	.	.	.	.
8E\L	ven-	.	.	.	.	8g\	.	.	.	.
8D\J	.	.	.	.	.	8f\J	.	.	.	.
4E\	-tu-	.	.	.	.	4g\	.	2cc\	.	.
4F#X\	-ri	.	.	.	.	4a\	.	.	.	.
!	!	!	!	!	!	!LO:LB:g=original	!	!	!	!
=137	=137	=137	=137	=137	=137	=137	=137	=137	=137	=137
4.G\	ſae-	.	4r	.	.	4g\	-men	4b-X\	.	.
.	.	.	4d\	Et	.	4r	.	4.a\	.	.
8Fn\	-cu-	.	.	.	.	.	.	.	.	.
4E\	-li	.	4c#X\	vi-	.	2r	.	.	.	.
.	.	.	.	.	.	.	.	8g\	.	.
8D\L	A-	.	4d\	.	.	.	.	8f\L	.	.
8F\J	.	.	.	.	.	.	.	8a\J	.	.
!	!	!	!LO:LB:g=original	!	!	!	!	!	!	!
=138	=138	=138	=138	=138	=138	=138	=138	=138	=138	=138
!	!	!	!	!	!	!LO:TX:a:t=1.	!	!LO:TX:t=P:problem:mixed beam	!	!
2A\	.	.	4cn\	tam	.	1r	.	8e/L	.	.
.	.	.	.	.	.	.	.	8ee\	.	.
.	.	.	8Bn\L	ven-	.	.	.	8dd\	.	.
.	.	.	8A\J	.	.	.	.	8cc\J	.	.
2G\	.	.	4B\	-tu-	.	.	.	4dd\	.	.
.	.	.	4c#X\	-ri	.	.	.	4ee\	.	.
!LO:LB:g=original	!	!	!	!	!	!	!	!	!	!
=139	=139	=139	=139	=139	=139	=139	=139	=139	=139	=139
2.F\	.	.	4.d\	ſae-	.	4r	.	4dd\	-men	.
.	.	.	.	.	.	4a\	Et	4r	.	.
.	.	.	8cn\	-cu-	.	.	.	.	.	.
.	.	.	4Bn\	-li	.	(4g#X\	vi-	2r	.	.
4E\	.	.	4c#X\	A-	.	4a\)	.	.	.	.
=140	=140	=140	=140	=140	=140	=140	=140	=140	=140	=140
2D\	-men	.	4d\	.	.	4f\	-tam	4r	.	.
.	.	.	8e\L	.	.	8e\L	ven-	4dd\	Et	.
.	.	.	8f\J	.	.	8d\J	.	.	.	.
2r	.	.	4g\	.	.	4e\	-tu-	(4cc#X\	vi-	.
.	.	.	4f\	.	.	4f\	-ri	4dd\)	.	.
!	!	!	!	!	!	!	!	!LO:LB:g=original	!	!
=141	=141	=141	=141	=141	=141	=141	=141	=141	=141	=141
4r	.	.	4e\	-men	.	4a\	ſae-	4ccn\	-tam	.
4A\	Et	.	4r	.	.	2f\	.	8bn\L	ven-	.
.	.	.	.	.	.	.	.	8a\J	.	.
4G#X\	vi-	.	2r	.	.	.	.	4b\	-tu-	.
4A\	.	.	.	.	.	4e\	-cu-	4cc#X\	-ri	.
=142	=142	=142	=142	=142	=142	=142	=142	=142	=142	=142
4F\	tam	.	4r	.	.	4d\	li	4dd\	ſae-	.
8E\L	ven-	.	4d\	A-	.	8e\L	A-	2b-X\	.	.
8D\J	.	.	.	.	.	8f\J	.	.	.	.
4E\	-tu-	.	4c#X\	.	.	4g\	.	.	.	.
4F\	-ri	.	[4d\	.	.	4f\	.	4a\	-cu-	.
!	!	!	!LO:LB:g=original	!	!	!LO:LB:g=original	!	!	!	!
=143	=143	=143	=143	=143	=143	=143	=143	=143	=143	=143
!	!	!	!LO:TX:a:t=P:problem:brak zakończenia ligatury	!	!	!	!	!	!	!
2G\	ſae-	.	4d\]	.	.	2e\	.	2.a\	li	.
.	.	.	4c#X\	-men	.	.	.	.	.	.
4F\	-cu-	.	4d\	.	.	4d\	-men	.	.	.
4C#X/	-li-	.	8A\L	A-	.	[4e\	A-	4g\	A-	.
.	.	.	8B-\J	.	.	.	.	.	.	.
=144	=144	=144	=144	=144	=144	=144	=144	=144	=144	=144
2D/	A-	.	2A\	.	.	4e\]	.	4g/	.	.
.	.	.	.	.	.	4d\	.	4f/	.	.
2BB-/	.	.	2B-\	-men	.	2f\	.	[2dd\	.	.
!LO:LB:g=original	!	!	!	!	!	!	!	!	!	!
=145	=145	=145	=145	=145	=145	=145	=145	=145	=145	=145
2GG/	.	.	2B-\	A-	.	1e	.	2dd\]	.	.
2AA/	.	.	[2A\	.	.	.	.	2cc#X\	.	.
!	!	!	!	!	!	!	!	!LO:LB:g=original	!	!
=146	=146	=146	=146	=146	=146	=146	=146	=146	=146	=146
2D\	-men	.	2A\]	-me	.	2f\	-men	2dd\	-men	.
2BB-/	A-	.	2d\	A-	.	2b-\	A-	2ff\	A-	.
=147	=147	=147	=147	=147	=147	=147	=147	=147	=147	=147
2GG/	-men	.	2d\	-men	.	2b-\	-men	2ee\	-men	.
2AA/	Et	.	2c#X\	Et	.	4a\	Et	2ee\	Et	.
.	.	.	.	.	.	4g\	.	.	.	.
=148	=148	=148	=148	=148	=148	=148	=148	=148	=148	=148
2D\	vi-	.	1d	vi-	.	2f\	vi-	(1dd	vi-	.
4F\	-tam	.	.	.	.	4a\	-tam	.	.	.
4E\	ven-	.	.	.	.	4g\	ven-	.	.	.
=149	=149	=149	=149	=149	=149	=149	=149	=149	=149	=149
4D\	-tu-	.	2D/	-tam	.	4f\	-tu-	2d/)	-tam	.
8F\L	.	.	.	.	.	8a\L	.	.	.	.
8E\J	.	.	.	.	.	8g\J	.	.	.	.
4D\	-ri	.	4r	.	.	4f\	-ri	4r	.	.
8E\L	.	.	4d\	ven-	.	8g\L	.	4dd\	ven-	.
8F\J	.	.	.	.	.	8a\J	.	.	.	.
!	!	!	!LO:LB:g=original	!	!	!LO:LB:g=original	!	!	!	!
=150	=150	=150	=150	=150	=150	=150	=150	=150	=150	=150
4.G\	ſae-	.	2.e\	-tu-	.	4.b-\	ſae-	2.ee\	-tu-	.
8G\	-cu-	.	.	.	.	8b-\	-cu-	.	.	.
4G\	-li	.	.	.	.	4b-\	-li	.	.	.
4r	.	.	8d\L	-ri	.	4r	.	8dd\L	-ri	.
.	.	.	8e\J	.	.	.	.	8ee\J	.	.
!LO:PB:g=original	!	!	!	!	!	!	!	!	!	!
=151	=151	=151	=151	=151	=151	=151	=151	=151	=151	=151
4r	.	.	1f	ſae-	.	4r	.	[1ff	ſae-	.
4A\	A-	.	.	.	.	4cc\	A-	.	.	.
4G#X\	.	.	.	.	.	4bn\	.	.	.	.
4A\	.	.	.	.	.	4cc\	.	.	.	.
=152	=152	=152	=152	=152	=152	=152	=152	=152	=152	=152
4F\	.	.	2.f\	.	.	4a\	.	2.ff\]	.	.
4E\	.	.	.	.	.	4g\	.	.	.	.
4D\	.	.	.	.	.	4f\	.	.	.	.
8E\L	.	.	4f\	-cu-	.	8g\L	.	4ff\	-cu-	.
8F\J	.	.	.	.	.	8a\J	.	.	.	.
!	!	!	!	!	!	!	!	!LO:PB:g=original	!	!
=153	=153	=153	=153	=153	=153	=153	=153	=153	=153	=153
2G\	.	.	2f\	-li	.	2b-\	.	2ff\	-li	.
2G#X\	.	.	2e\	A-	.	2bn\	-me	2ff\	A-	.
=154	=154	=154	=154	=154	=154	=154	=154	=154	=154	=154
2A^\	.	.	1d	.	.	1a	A-	1ff#X^	.	.
4F#X\	.	.	.	.	.	.	.	.	.	.
4D\	.	.	.	.	.	.	.	.	.	.
=155	=155	=155	=155	=155	=155	=155	=155	=155	=155	=155
1AA	.	.	2d\	.	.	2.a\	.	1ee	.	.
.	.	.	2c#X\	.	.	.	.	.	.	.
.	.	.	.	.	.	4g\	.	.	.	.
=156	=156	=156	=156	=156	=156	=156	=156	=156	=156	=156
2D/	-men	.	4d\	.	.	4f#X\	-men	4dd\	-men	.
.	.	.	4d\	.	.	4r	.	(4dd\	A-	.
2r	.	.	(4c#X\	-men	.	2r	.	4cc#X\	.	.
.	.	.	4d\)	A-	.	.	.	4dd\)	.	.
!LO:LB:g=original	!	!	!LO:LB:g=original	!	!	!	!	!	!	!
=157	=157	=157	=157	=157	=157	=157	=157	=157	=157	=157
(2.GG/	A-	.	1d	.	.	1g	A-	1bn	.	.
4BBn/)	.	.	.	.	.	.	.	.	.	.
!	!	!	!	!	!	!LO:LB:g=original	!	!	!	!
=158	=158	=158	=158	=158	=158	=158	=158	=158	=158	=158
1D	.	.	1d	.	.	2.g\	.	2.bn\	.	.
.	.	.	.	.	.	4f#X\	.	4a\	.	.
=159	=159	=159	=159	=159	=159	=159	=159	=159	=159	=159
0D	-men	.	0d	-men.	.	0f#X	-men.	0cc	-men	.
==	==	==	==	==	==	==	==	==	==	==
*-	*-	*-	*-	*-	*-	*-	*-	*-	*-	*-
!!!system-decoration: [(s1,s2,s3,s4)]
!!!RDF**kern: > = above
!!!AIN: 1 alto 1 empty 1 tenor 1 vox
!!!ENC: Marta Lawrence
!!!END: 2020-12-29
!!!ENC: Tomasz Grochalski
!!!END: 2020-12-08
